theme-map4trip/src/main/assets/themes/mapsforgeV3/map4trip/symbols/recycling.svg

<svg enable-background="new -0.7 -0.7 20 20" height="20" viewBox="-.7 -.7 20 20" width="20" xmlns="http://www.w3.org/2000/svg"><path d="m15.2 12.3c-.1 0-.3 0-.4 0h-.1l-2-3.7 4.2-2.5 1.9 3.6c.1.6 0 1.1-.3 1.5-.7.7-1.9 1.1-3.3 1.1z" fill="#3bb73b"/><path d="m16.8 6.3 1.8 3.5c.4 1.8-1.6 2.5-3.4 2.5-.1 0-.3 0-.4 0l-1.9-3.5zm.1-.4-.2.1-4 2.4-.2.1.1.2 1.9 3.5.1.1h.1.4c1.5 0 2.7-.4 3.3-1.2.4-.4.5-1 .3-1.6l-1.7-3.3z" fill="#f4f4f4"/><path d="m9.7 14.9 2.3-4.1.1 1.7h3.1c1.4 0 2.3-.3 3-1l.2.1-2.4 4.5c-.3.6-1.2 1.1-1.9 1.1-.1 0-.1 0-.2 0h-1.8l-.1 1.9z" fill="#3bb73b"/><path d="m11.9 11.2.1 1.4h3.2c1.2 0 2.3-.2 3.1-1l-2.4 4.5c-.3.6-1.1 1.1-1.8 1.1h-.1-2v1.5l-2.1-3.8zm.2-.9-.4.7-2.1 3.7-.1.1.1.2 2.1 3.8.4.8v-.9-1.3h1.7.1c.8 0 1.7-.5 2-1.2l2.4-4.5-.4-.3c-.6.7-1.5.9-2.9.9h-3l-.1-1.2z" fill="#f4f4f4"/><path d="m7.2 6.7h-.2v-.1l-4-2.3 2.2-3.4c.4-.3.8-.5 1.2-.5 1.2 0 2.4 1.3 3 2.7v.1l-2 3.3.3.2z" fill="#3bb73b"/><path d="m6.4.5c1.1 0 2.3 1.3 2.9 2.6l-2.1 3.5-4-2.3 2.1-3.3c.4-.3.7-.5 1.1-.5m0-.2c-.4 0-.9.2-1.2.5l-2.2 3.3-.2.2.2.1 3.8 2.2-.1.2h.4l.1.1v-.1h.8l-.4-.3 2-3.2.1-.1-.1-.2c-.7-1.3-1.9-2.7-3.2-2.7z" fill="#f4f4f4"/><path d="m9.4 6.3 1.5-.9-1.6-2.8c-.7-1.2-1.4-1.8-2.3-2.1v-.2h5.2c.8 0 1.7.6 2 1.3l.8 1.5 1.6-.8-2.5 4.1z" fill="#3bb73b"/><path d="m12.2.3c.7 0 1.5.6 1.8 1.2l1 1.7 1.4-.7-2.3 3.7h-4.3l1.2-.8-1.6-2.8c-.6-1.1-1.3-1.9-2.4-2.2zm0-.2h-5.2v.5c.9.3 1.6.9 2.2 2.1l1.5 2.6-1 .7-.8.4h.9 4.3.1l.1-.1 2.3-3.7.4-.7-.8.4-1.1.6-.8-1.5c-.3-.7-1.3-1.3-2.1-1.3z" fill="#f4f4f4"/><path d="m3.8 12.4c-1 0-1.9 0-2.6-.4-.5-.2-1-.8-1.2-1.4-.1-.4-.1-.8.1-1.2l1.1-2-1.5-1.1 4.8-.1 2.5 4.4-1.5-.8z" fill="#3bb73b"/><path d="m4.5 6.3 2.2 3.9-1.3-.6-1.7 2.7c-.9 0-1.9 0-2.5-.4-.6-.3-1.7-1.3-1-2.4l1.2-2.1-1.3-1zm.1-.2h-.1-4.4-.7l.6.4 1 .9-1 1.9c-.2.4-.3.9-.1 1.3.2.7.8 1.2 1.3 1.5.7.4 1.7.4 2.7.4h.1v-.1l1.5-2.4 1 .5.7.4-.4-.7-2.1-4z" fill="#f4f4f4"/><path d="m5.4 17.3c-1.2 0-2.1-.3-2.5-.9l-2.7-4.9.2-.1c.8.8 1.7 1 2.4 1h.2 5.5v4.8z" fill="#3bb73b"/><path d="m.3 11.5c.8.8 1.7 1 2.5 1h.2 5.4v4.6h-2.8c-.1 0-.1 0-.2 0-1 0-1.9-.2-2.4-.8zm.2-.2-.4.3 2.7 4.8c.5.6 1.4.9 2.6.9h.2 2.8.3v-.3-4.6-.2h-.2-5.4c-.1 0-.2 0-.2 0-.8.1-1.7-.1-2.4-.9z" fill="#f4f4f4"/></svg>

<?xml version="1.0" encoding="utf-8"?>
<!-- Generator: Adobe Illustrator 14.0.0, SVG Export Plug-In . SVG Version: 6.00 Build 43363)  -->
<!DOCTYPE svg PUBLIC "-//W3C//DTD SVG 1.0//EN" "http://www.w3.org/TR/2001/REC-SVG-20010904/DTD/svg10.dtd">
<svg version="1.0"
	 id="recycling" xmlns:xs="http://www.w3.org/2001/XMLSchema" xmlns:inkscape="http://www.inkscape.org/namespaces/inkscape" xmlns:rdf="http://www.w3.org/1999/02/22-rdf-syntax-ns#" xmlns:svg="http://www.w3.org/2000/svg" xmlns:cc="http://web.resource.org/cc/" xmlns:xi="http://www.w3.org/2001/XInclude" xmlns:dc="http://purl.org/dc/elements/1.1/"
	 xmlns="http://www.w3.org/2000/svg" xmlns:xlink="http://www.w3.org/1999/xlink" x="0px" y="0px" width="20px" height="20px"
	 viewBox="-0.7 -0.7 20 20" style="enable-background:new -0.7 -0.7 20 20;" xml:space="preserve">
<g>
	<path style="fill:#3BB73B;" d="M15.2,12.3c-0.1,0-0.3,0-0.4,0l-0.1,0l-2-3.7l4.2-2.5l1.9,3.6c0.1,0.6,0,1.1-0.3,1.5
		C17.8,11.9,16.6,12.3,15.2,12.3L15.2,12.3z"/>
	<path style="fill:#F4F4F4;" d="M16.8,6.3l1.8,3.5c0.4,1.8-1.6,2.5-3.4,2.5c-0.1,0-0.3,0-0.4,0l-1.9-3.5L16.8,6.3 M16.9,5.9
		l-0.2,0.1l-4,2.4l-0.2,0.1l0.1,0.2l1.9,3.5l0.1,0.1l0.1,0c0.1,0,0.3,0,0.4,0c1.5,0,2.7-0.4,3.3-1.2c0.4-0.4,0.5-1,0.3-1.6l0,0l0,0
		L17,6.2L16.9,5.9L16.9,5.9z"/>
</g>
<g>
	<path style="fill:#3BB73B;" d="M9.7,14.9l2.3-4.1l0.1,1.7h3.1c1.4,0,2.3-0.3,3-1l0.2,0.1l-2.4,4.5c-0.3,0.6-1.2,1.1-1.9,1.1
		c-0.1,0-0.1,0-0.2,0l-1.8,0L12,19.1L9.7,14.9z"/>
	<path style="fill:#F4F4F4;" d="M11.9,11.2l0.1,1.4h3.2c1.2,0,2.3-0.2,3.1-1l-2.4,4.5c-0.3,0.6-1.1,1.1-1.8,1.1c0,0-0.1,0-0.1,0H12
		l0,1.5l-2.1-3.8L11.9,11.2 M12.1,10.3L11.7,11l-2.1,3.7l-0.1,0.1L9.6,15l2.1,3.8l0.4,0.8l0-0.9l0-1.3h1.7c0,0,0.1,0,0.1,0
		c0.8,0,1.7-0.5,2-1.2l2.4-4.5l-0.4-0.3c-0.6,0.7-1.5,0.9-2.9,0.9h-3l-0.1-1.2L12.1,10.3L12.1,10.3z"/>
</g>
<g>
	<path style="fill:#3BB73B;" d="M7.2,6.7H7L7,6.6L3,4.3l2.2-3.4C5.6,0.6,6,0.4,6.4,0.4c1.2,0,2.4,1.3,3,2.7l0,0.1L7.4,6.5l0.3,0.2
		L7.2,6.7L7.2,6.7L7.2,6.7z"/>
	<path style="fill:#F4F4F4;" d="M6.4,0.5c1.1,0,2.3,1.3,2.9,2.6L7.2,6.6l-4-2.3L5.3,1C5.7,0.7,6,0.5,6.4,0.5 M7.2,6.6L7.2,6.6
		L7.2,6.6L7.2,6.6 M6.4,0.3L6.4,0.3C6,0.3,5.5,0.5,5.2,0.8l0,0l0,0L3,4.1L2.8,4.3l0.2,0.1l3.8,2.2L6.7,6.8h0.4l0.1,0.1l0-0.1h0.8
		L7.6,6.5l2-3.2l0.1-0.1L9.6,3C8.9,1.7,7.7,0.3,6.4,0.3L6.4,0.3z"/>
</g>
<g>
	<path style="fill:#3BB73B;" d="M9.4,6.3l1.5-0.9L9.3,2.6C8.6,1.4,7.9,0.8,7,0.5l0-0.2l5.2,0c0.8,0,1.7,0.6,2,1.3L15,3.1l1.6-0.8
		l-2.5,4.1L9.4,6.3z"/>
	<path style="fill:#F4F4F4;" d="M12.2,0.3c0.7,0,1.5,0.6,1.8,1.2L15,3.2l1.4-0.7l-2.3,3.7l-4.3,0L11,5.4L9.4,2.6
		C8.8,1.5,8.1,0.7,7,0.4L12.2,0.3C12.2,0.3,12.2,0.3,12.2,0.3 M12.2,0.1L12.2,0.1L12.2,0.1L7,0.1L7,0.6c0.9,0.3,1.6,0.9,2.2,2.1
		l1.5,2.6L9.7,6L8.9,6.4l0.9,0l4.3,0l0.1,0l0.1-0.1l2.3-3.7L17,1.9l-0.8,0.4l-1.1,0.6l-0.8-1.5C14,0.7,13,0.1,12.2,0.1L12.2,0.1z"/>
</g>
<g>
	<path style="fill:#3BB73B;" d="M3.8,12.4c-1,0-1.9,0-2.6-0.4c-0.5-0.2-1-0.8-1.2-1.4c-0.1-0.4-0.1-0.8,0.1-1.2l1.1-2l-1.5-1.1
		l4.8-0.1L7,10.6L5.5,9.8L3.8,12.4L3.8,12.4z"/>
	<path style="fill:#F4F4F4;" d="M4.5,6.3l2.2,3.9L5.4,9.6l-1.7,2.7c-0.9,0-1.9,0-2.5-0.4c-0.6-0.3-1.7-1.3-1-2.4l1.2-2.1l-1.3-1
		L4.5,6.3 M4.6,6.1l-0.1,0l-4.4,0l-0.7,0l0.6,0.4L1,7.4L0,9.3c-0.2,0.4-0.3,0.9-0.1,1.3c0.2,0.7,0.8,1.2,1.3,1.5
		c0.7,0.4,1.7,0.4,2.7,0.4h0.1L4,12.4L5.5,10l1,0.5l0.7,0.4l-0.4-0.7L4.7,6.2L4.6,6.1L4.6,6.1z"/>
</g>
<g>
	<path style="fill:#3BB73B;" d="M5.4,17.3c-1.2,0-2.1-0.3-2.5-0.9l-2.7-4.9l0.2-0.1c0.8,0.8,1.7,1,2.4,1c0.1,0,0.2,0,0.2,0l5.5,0
		v4.8L5.4,17.3z"/>
	<path style="fill:#F4F4F4;" d="M0.3,11.5c0.8,0.8,1.7,1,2.5,1c0.1,0,0.2,0,0.2,0l5.4,0v4.6H5.6c-0.1,0-0.1,0-0.2,0
		c-1,0-1.9-0.2-2.4-0.8L0.3,11.5 M0.5,11.3l-0.4,0.3l2.7,4.8c0.5,0.6,1.4,0.9,2.6,0.9l0.2,0h2.8h0.3v-0.3v-4.6v-0.2l-0.2,0l-5.4,0
		c-0.1,0-0.2,0-0.2,0C2.1,12.3,1.2,12.1,0.5,11.3L0.5,11.3z"/>
</g>
</svg>
